assets/icons/traton/save_inactive.svg

<svg xmlns="http://www.w3.org/2000/svg" width="32" height="32" viewBox="0 0 32 32" fill="none">
<path d="M28 26.5865L26.5865 28L4.0026 5.41607L5.41607 4.0026L28 26.5865ZM5.99916 10.2269V25.9908H9.99748V17.9941H13.7664L15.7656 19.9933H11.9966V25.9908H19.9933V24.221L23.7622 27.9899H4V8.22772L5.99916 10.2269ZM27.9899 9.58359V23.771L25.9908 21.7718V10.4114L21.9924 6.41305V10.9971H15.216L13.2168 8.9979H19.9933V5.99916H11.9966V7.77771L8.21893 4H22.4063L27.9899 9.58359Z" fill="#001D21" />
</svg>

<svg xmlns="http://www.w3.org/2000/svg" fill="none" viewBox="0 0 32 32"><path fill="#001d21" d="M28 26.6 26.6 28 4 5.4 5.4 4zM6 10.2V26h4v-8h3.8l2 2H12v6h8v-1.8l3.8 3.8H4V8.2zm22-.6v14.2l-2-2V10.4l-4-4V11h-6.8l-2-2H20V6h-8v1.8L8.2 4h14.2z"/></svg>
